X: 350
T: Yangliu qing
%%abc-version 2.0
%%abcx-abcm2ps-target-version 5.9.1 (29 Sep 2008)
%%abc-creator hum2abc beta
%%abcx-conversion-date 2013/10/02 07:52:30
%%abc-edited-by Helmut Schaffrath
%%humdrum-veritas 1839078349
%%humdrum-veritas-data 2847833784
%%continueall 1
%%barnumbers 0
L: 1/8
M: 2/4
K: E
e2d c [I:setbarnb 1]| 
e2d c | 
e> f d c | 
b g b g | 
B> c e c | 
eB2G/ c/ | 
B4 | 
z g f g | 
e g f e | 
e G B e | 
c B G F | 
E2z2 | 
B> c B c | 
G FE2 | 
B c B B/ c/ | 
G FE2 | 
B> c B c | 
G FE2 | 
B c B B/ c/ | 
G FE2 | 
z g f g | 
e> g f e | 
e G B3/ e/ | 
c B G F | 
E2z2 |]  



